X:46
T:Lady Madelina Sinclair's Strathspey
S:Petrie's Third Collection of Strathspey Reels and Country Dances &c.
Z:Steve Wyrick <sjwyrick'at'gmail'dot'com>, 7/30/05
N:Petrie's Third Collection, page 18
L:1/8
M:C
R:Strathspey
K:A
f|eAcA c/d/e f2|eA f/e/d/c/ B2Bf|eAcA c/d/e f2|eAcB A2A:|g|
aefe f/g/a g/a/b|a/g/f/e/ ac B2Bg|aefe f/g/a g/a/b|a/g/f/e/ f/g/a/g/ a2 ef/g/|
a<fg<e f<de<c|d<bc<a B2BA|c/d/e f2 c/d/e a2|eAc>B A2A|]
